X:1
T:Title
%%score 1 { 2 | 3 }
L:1/8
Q:1/4=102
M:6/8
K:Bb
V:1 treble nm="Grand Piano, Soprano"
V:2 bass nm="Choir Pad, Overflowing Ever"
V:3 bass 
V:1
 [DF]2 [DF] [DB]2 [FA] | [EG]2 [EG] [Gc]3 | [FB]2 [FA] [EG]2 [EA] | [EG]3 [DF]3 | %4
w: By~Robert~Lowry * * *||||
 [DF]2 [DF] [DB]2 [FA] | [EG]2 [EG] [Gc]3 | [FB]2 [FA] [Fd]2 [Ec] | [DB]3 [DB]3 | %8
w: ||||
 [Fd]2 [Fd] [Fd][Ec][DB] | [Fc]2 [Fc] [Fc]3 | [Ec]2 [Ec] [Ec][DB][EA] | [DB]2 [DB] [DB]3 | %12
w: ||||
 [Fd]3 [DB]3 | [DF]3 [B,D]3 | [DF]2 [FB] [EA]2 [DB] | [Ec]3 [EG]3 | [Ec]3 [Fd]3 | [Ge]3 [Ec]3 | %18
w: ||||||
 [DB]2 [DB] [Fd]2 [Ec] | [DB]6- | [DB]3 z3 |] %21
w: |||
V:2
 B,2 B, F,2 B, | B,2 B,[K:treble] E3 | D2 C B,2 C | B,3 B,3 | B,2 B, F,2 B, | B,2 B,[K:treble] E3 | %6
 D2 C A,2 A, | B,3 B,3 | B,2 B, B,2 B, | A,2 A, A,3 | A,2 A, A,B,C | B,2 B, B,3 | B,3 F,3 | %13
 B,3 F,3 | B,2 B, F,2 F, | G,3 B,3 | G,3 =B,3 | C3 G,3 | F,2 F, B,2 A, | B,6- | B,3 z3 |] %21
V:3
 B,,2 B,, B,,2 D, | E,2 E, C,3 | F,2 F, F,2 F, | B,,3 B,,3 | B,,2 B,, B,,2 D, | E,2 E, C,3 | %6
 F,2 F, F,2 F, | B,,3 B,,3 | z6 | F,2 F, F,3 | F,2 F, .F,2 F, | B,,2 B,, B,,3 | B,,3 B,,3 | %13
 B,,3 B,,3 | B,,2 D, C,2 B,, | E,3 E,3 | E,3 D,3 | C,3 E,3 | z3 F,2 F, | B,,6- | B,,3 z3 |] %21

